assets/images/icons/phone-icon.svg

<svg width="33" height="32" viewBox="0 0 33 32" fill="none" xmlns="http://www.w3.org/2000/svg">
<g clip-path="url(#clip0_379_9929)">
<path opacity="0.1" d="M0.723155 23.1618C0.441095 20.752 0.401914 18.3874 0.748062 16.248C1.1737 13.6174 2.28493 10.6909 3.49894 8.07362C5.87163 2.95839 10.1191 1.16885 15.2912 0.362065C22.5007 -0.762522 32.4372 0.362091 32.5 9.08714C32.1383 12.2073 29.7517 20.8815 21.6951 21.5434C19.0313 21.7622 18.0348 24.4378 16.8612 27.5006C13.7729 35.5602 1.75575 31.9835 0.723155 23.1618Z" fill="white"/>
<path d="M24.0764 20.7914L21.3945 18.9176C21.044 18.6734 20.6337 18.5443 20.2088 18.5443C19.5329 18.5443 18.8986 18.8758 18.5121 19.4304L17.8896 20.3224C16.8462 19.6228 15.6815 18.6457 14.5718 17.5362C13.4625 16.4265 12.4853 15.262 11.7856 14.2186L12.6774 13.5965C13.1322 13.2797 13.4354 12.8057 13.532 12.2612C13.6282 11.7176 13.5069 11.168 13.19 10.713L11.3166 8.03134C10.789 7.27658 9.79132 6.9463 8.95126 7.25698C8.70628 7.34773 8.47827 7.4587 8.2539 7.59919L7.88319 7.86034C7.79102 7.9323 7.70532 8.01073 7.62285 8.093C7.17088 8.54496 6.84989 9.11659 6.66959 9.79253C5.89744 12.6867 7.81002 17.062 11.4282 20.68C14.4666 23.7184 18.1168 25.6062 20.9547 25.6064C21.4402 25.6064 21.8987 25.5498 22.3163 25.4384C22.9914 25.2579 23.563 24.9373 24.015 24.4853C24.0975 24.4031 24.1763 24.3172 24.2604 24.208L24.5211 23.8355C24.6497 23.6299 24.7609 23.4015 24.851 23.1567C25.1667 22.3039 24.8486 21.3313 24.0764 20.7914Z" fill="#7FB51F"/>
<path d="M26.0859 6.39307H16.1507C15.9219 6.39307 15.7368 6.57842 15.7368 6.80703V12.6026C15.7368 12.8312 15.9219 13.0165 16.1507 13.0165H17.6202L18.6078 15.1201C18.6762 15.2655 18.8221 15.3582 18.9826 15.3582C19.1431 15.3582 19.289 15.2655 19.3574 15.1203L20.3454 13.0165H26.0859C26.3148 13.0165 26.4999 12.8312 26.4999 12.6026V6.80703C26.4999 6.57842 26.3148 6.39307 26.0859 6.39307ZM23.9902 10.9467H18.2464C18.0176 10.9467 17.8325 10.7614 17.8325 10.5327C17.8325 10.3041 18.0176 10.1188 18.2464 10.1188H23.9902C24.219 10.1188 24.4042 10.3041 24.4042 10.5327C24.4042 10.7614 24.219 10.9467 23.9902 10.9467ZM23.9902 9.29084H18.2464C18.0176 9.29084 17.8325 9.10548 17.8325 8.87687C17.8325 8.64826 18.0176 8.4629 18.2464 8.4629H23.9902C24.219 8.4629 24.4042 8.64826 24.4042 8.87687C24.4042 9.10548 24.219 9.29084 23.9902 9.29084Z" fill="#7FB51F"/>
</g>
<defs>
<clipPath id="clip0_379_9929">
<rect width="32" height="32" fill="white" transform="translate(0.5)"/>
</clipPath>
</defs>
</svg>

<svg xmlns="http://www.w3.org/2000/svg" width="33" height="32" fill="none"><g clip-path="url(#a)"><path fill="#fff" d="M.723 23.162c-.282-2.41-.321-4.775.025-6.914.426-2.63 1.537-5.557 2.75-8.174C5.873 2.958 10.12 1.169 15.292.362c7.21-1.125 17.146 0 17.209 8.725-.362 3.12-2.748 11.795-10.805 12.456-2.664.22-3.66 2.895-4.834 5.958-3.088 8.06-15.105 4.482-16.138-4.34" opacity=".1"/><path fill="#7FB51F" d="m24.076 20.791-2.681-1.873a2.066 2.066 0 0 0-2.883.512l-.622.892c-1.044-.7-2.209-1.676-3.318-2.786-1.11-1.11-2.087-2.274-2.786-3.317l.891-.622c.455-.317.758-.791.855-1.336a2.06 2.06 0 0 0-.342-1.548l-1.873-2.682c-.528-.754-1.526-1.085-2.366-.774-.245.09-.473.202-.697.342l-.37.261q-.139.108-.261.233c-.452.452-.773 1.024-.953 1.7-.773 2.894 1.14 7.269 4.758 10.887 3.039 3.038 6.689 4.926 9.527 4.926.485 0 .944-.056 1.361-.168.675-.18 1.247-.5 1.699-.953a3 3 0 0 0 .245-.277l.261-.372q.194-.31.33-.68c.316-.852-.002-1.825-.775-2.365"/><path fill="#7FB51F" d="M26.086 6.393H16.15a.414.414 0 0 0-.414.414v5.796c0 .228.185.414.414.414h1.47l.987 2.103a.414.414 0 0 0 .75 0l.987-2.103h5.74a.414.414 0 0 0 .415-.414V6.807a.414.414 0 0 0-.414-.414m-2.096 4.554h-5.744a.414.414 0 1 1 0-.828h5.744a.414.414 0 1 1 0 .828m0-1.656h-5.744a.414.414 0 1 1 0-.828h5.744a.414.414 0 1 1 0 .828"/></g><defs><clipPath id="a"><path fill="#fff" d="M.5 0h32v32H.5z"/></clipPath></defs></svg>
